!!!OTL: O WUNDERBARES GLUECK
!!!ARE: Europa, Mitteleuropa, Deutschland, Oderbruch, Gross - Neuendorf
!!!SCT: E1402
!!!YEM: Copyright 1995, estate of Helmut Schaffrath.
**kern
*ICvox
*Ivox
*M2/4
*k[b-e-]
*B-:
{4b-
=1
8a
8g
8f
8e-
=2
4d}
{4f
=3
8g
8ee-
8cc
8a
=4
4b-
8r}
{8b-
=5
8dd
8b-
8b-
8b-
=6
4cc
8a}
{8f
=7
8dd
8b-
8b-
8b-
=8
4cc
8a}
{8b-
=9
8a
8g
8f
8e-
=10
4d}
{4f
=11
8g
8ee-
8cc
8a
=12
4b-}
==
!!!AGN: Staende -, Soldaten - Lied, Klage
!!!ONB: ESAC (Essen Associative Code) Database: ERK3
!!!AMT: simple duple
!!!AIN: vox
!!!EED: Helmut Schaffrath
!!!EEV: 1.0
*-
